public/assets/icons/twitter-brands 1.svg

<svg width="80" height="80" viewBox="0 0 80 80" fill="none" xmlns="http://www.w3.org/2000/svg">
<g clip-path="url(#clip0)">
<path d="M87.9263 29.0394C87.9885 29.9099 87.9885 30.7806 87.9885 31.6511C87.9885 58.203 67.7792 88.797 30.8426 88.797C19.4631 88.797 8.89216 85.5012 0 79.7806C1.61681 79.967 3.17122 80.0292 4.85023 80.0292C14.2397 80.0292 22.8832 76.858 29.7855 71.4481C20.9555 71.2615 13.5558 65.4785 11.0062 57.5191C12.25 57.7055 13.4936 57.8299 14.7995 57.8299C16.6028 57.8299 18.4062 57.5811 20.085 57.146C10.882 55.2804 3.97953 47.1968 3.97953 37.4341V37.1854C6.65328 38.6778 9.76268 39.6106 13.0581 39.7348C7.64821 36.1281 4.10394 29.9721 4.10394 23.0076C4.10394 19.2767 5.09868 15.8567 6.8399 12.8719C16.727 25.0597 31.5887 33.0189 48.2535 33.8896C47.9427 32.3972 47.7561 30.8428 47.7561 29.2882C47.7561 18.2196 56.7104 9.20319 67.8411 9.20319C73.624 9.20319 78.8473 11.6283 82.5162 15.5458C87.0554 14.6753 91.4082 12.9963 95.2637 10.6956C93.7711 15.3594 90.5998 19.2769 86.4337 21.764C90.4756 21.329 94.3931 20.2094 97.9996 18.655C95.264 22.6345 91.8438 26.1788 87.9263 29.0394V29.0394Z" fill="#D1E2E2"/>
</g>
<defs>
<clipPath id="clip0">
<rect width="80" height="80" fill="white"/>
</clipPath>
</defs>
</svg>

<svg width="80" height="80" fill="none" xmlns="http://www.w3.org/2000/svg"><g clip-path="url(#a)"><path d="M87.926 29.04c.063.87.063 1.74.063 2.611 0 26.552-20.21 57.146-57.146 57.146-11.38 0-21.95-3.296-30.843-9.016 1.617.186 3.171.248 4.85.248 9.39 0 18.033-3.171 24.935-8.58-8.83-.188-16.23-5.97-18.779-13.93 1.244.187 2.488.31 3.793.31a21.24 21.24 0 0 0 5.286-.683C10.882 55.28 3.98 47.196 3.98 37.434v-.249a20.227 20.227 0 0 0 9.078 2.55c-5.41-3.607-8.954-9.763-8.954-16.727 0-3.731.995-7.151 2.736-10.136C16.727 25.06 31.589 33.019 48.253 33.89a22.677 22.677 0 0 1-.497-4.602c0-11.068 8.954-20.085 20.085-20.085a20.037 20.037 0 0 1 14.675 6.343c4.54-.87 8.892-2.55 12.748-4.85-1.493 4.663-4.664 8.58-8.83 11.068 4.042-.435 7.96-1.555 11.566-3.109a43.177 43.177 0 0 1-10.074 10.384z" fill="#D1E2E2"/></g><defs><clipPath id="a"><path fill="#fff" d="M0 0h80v80H0z"/></clipPath></defs></svg>
